assets/images/sections/join/developer.svg

<svg width="470" height="404" viewBox="0 0 470 404" fill="none" xmlns="http://www.w3.org/2000/svg">
<path d="M365.384 390.046C364.195 378.081 357.649 330.533 355.772 315.666C343.556 252.704 315.484 188.46 237.917 196.577C163.141 175.686 91.2323 207.713 91.2323 390.046" stroke="black"/>
<path d="M435.756 390.046C434.878 378.081 430.043 330.533 428.658 315.666C419.635 252.704 398.901 188.46 341.612 196.577C286.383 175.686 233.273 207.713 233.273 390.046" stroke="black"/>
<path d="M383.517 390.046C382.809 378.081 378.912 330.533 377.795 315.666C370.523 252.704 353.812 188.46 307.639 196.577C263.126 175.686 220.321 207.713 220.321 390.046" stroke="black"/>
<path d="M157.719 81.5132C157.148 81.229 134.481 73.4218 133.982 96.5237C133.483 119.625 157.213 115.356 157.271 114.688C157.329 114.021 157.719 81.5132 157.719 81.5132Z" fill="#12A682" stroke="black"/>
<path d="M203.95 1L207.254 1.17104C223.301 2.01277 238.439 8.79572 249.652 20.169C260.865 31.5423 267.331 46.6713 267.762 62.543C268.613 93.1363 269.154 126.944 268.072 143.277C265.836 177.099 231.287 180.562 231.287 180.562C231.287 180.562 231.532 189.613 231.438 199.561L230.515 200.046C218.218 206.494 204.41 209.606 190.499 209.064C176.588 208.522 163.071 204.345 151.326 196.96L149.566 66.6264C148.39 31.2869 168.204 1.18528 203.95 1Z" fill="#12A682" stroke="black"/>
<path d="M258.313 68.7917C258.256 70.0848 257.697 71.3046 256.754 72.1915C255.811 73.0783 254.559 73.5621 253.264 73.5398C252.631 73.5564 252 73.4461 251.409 73.2155C250.819 72.9849 250.28 72.6385 249.826 72.1969C249.371 71.7552 249.009 71.227 248.761 70.6435C248.514 70.06 248.385 69.4329 248.384 68.799C248.439 67.5046 248.998 66.283 249.941 65.3946C250.884 64.5062 252.137 64.0215 253.433 64.0436C254.067 64.027 254.698 64.1375 255.289 64.3686C255.88 64.5997 256.419 64.9467 256.874 65.3891C257.329 65.8316 257.691 66.3606 257.938 66.945C258.185 67.5293 258.313 68.1572 258.313 68.7917Z" fill="black"/>
<path d="M243.203 138.311C243.044 140.074 241.487 141.737 238.863 142.947C236.239 144.156 232.755 144.816 229.153 144.785C227.39 144.808 225.635 144.657 223.992 144.343C222.348 144.028 220.85 143.556 219.585 142.954C218.319 142.352 217.313 141.631 216.623 140.836C215.934 140.04 215.577 139.185 215.572 138.321" stroke="black" stroke-linecap="round"/>
<path d="M210.823 68.7918C210.766 70.0849 210.206 71.3047 209.263 72.1915C208.32 73.0783 207.068 73.5621 205.774 73.5398C205.14 73.5564 204.509 73.4461 203.919 73.2155C203.328 72.9849 202.79 72.6386 202.335 72.1969C201.88 71.7552 201.518 71.2271 201.271 70.6436C201.023 70.0601 200.895 69.433 200.893 68.7991C200.95 67.5054 201.509 66.2849 202.452 65.3969C203.395 64.5089 204.647 64.0235 205.942 64.0438C206.577 64.0262 207.208 64.136 207.8 64.3667C208.391 64.5974 208.93 64.9444 209.386 65.387C209.841 65.8297 210.202 66.3591 210.449 66.9439C210.696 67.5287 210.823 68.1571 210.823 68.7918Z" fill="black"/>
<path d="M224.728 117.128C224.736 117.428 228.149 117.578 233.737 117.578C234.54 117.606 235.344 117.538 236.13 117.378C236.65 117.269 237.138 117.047 237.554 116.73C237.97 116.413 238.304 116.008 238.53 115.548C239.355 113.59 238.545 111.824 238.102 110.288C237.022 106.971 235.89 103.512 234.704 99.8812C229.769 85.1505 225.261 73.3574 224.638 73.5432" stroke="black" stroke-linecap="round"/>
<path d="M209.018 51.1814C208.95 52.6816 201.574 52.0091 195.888 54.5414C190.163 56.9668 188.086 61.7425 186.92 60.7704C186.381 60.2987 186.809 58.773 188.324 56.8638C190.385 54.4643 192.972 52.5592 195.888 51.2928C198.804 50.0263 201.974 49.4318 205.158 49.554C207.601 49.7461 209.028 50.4704 209.018 51.1814Z" fill="#12A682" stroke="black"/>
<path d="M266.466 58.6571C265.205 59.4711 262.782 55.0254 258.663 53.5613C254.623 51.9647 250.147 53.8408 249.739 52.3883C249.579 51.7051 250.515 50.7691 252.404 50.222C254.893 49.6509 257.503 49.8252 259.902 50.7228C262.302 51.6203 264.383 53.2008 265.882 55.264C266.953 56.9196 267.04 58.2365 266.466 58.6571Z" fill="#12A682" stroke="black"/>
<path d="M331.945 52.1112L324.258 61.0192L342.516 52.1112C349.403 52.1112 363.657 47.9937 363.657 31.5017C363.657 13.2886 342.676 12.4898 331.945 13.2886C322.015 12.8093 304.077 13.2886 304.078 31.5017C304.078 47.2971 312.727 52.1112 331.945 52.1112Z" fill="#FF6B0A" stroke="#FF6B0A"/>
<path d="M344.055 31.0548C345.179 23.0565 340.727 22.8061 334.071 25.9002C331.135 23.6533 322.713 21.2155 324.087 31.0548C325.177 38.8536 334.071 42.0208 334.071 42.0208C334.071 42.0208 342.848 39.6454 344.055 31.0548Z" fill="white"/>
<path d="M183.067 374.502C183.228 357.032 184.223 324.304 186.922 271.605C189.562 220.047 157.979 210.616 140.818 212.334C140.069 212.409 139.325 212.41 138.572 212.427C132.916 212.554 121.594 216.997 113.683 234.581" stroke="black" stroke-linecap="round"/>
<path d="M100.926 177.683L108.613 186.671L90.3548 177.683C83.468 177.683 69.2139 173.529 69.2139 156.888C69.2139 138.511 90.1949 137.705 100.926 138.511C110.855 138.027 128.794 138.511 128.793 156.888C128.793 172.826 120.144 177.683 100.926 177.683Z" fill="black" stroke="black"/>
<path d="M99.9324 152.227C100.718 151.792 101.476 150.994 102.352 150.788C103.355 150.551 104.201 149.672 105.22 149.552C106.077 149.451 107.058 149.365 107.916 149.423C108.568 149.468 109.295 149.921 109.907 150.15C111.161 150.618 112.21 152.409 112.551 153.693C113.124 155.854 112.735 157.579 111.802 159.557C111.262 160.701 110.714 161.901 109.958 162.903C109.315 163.756 108.504 164.152 107.653 164.716C105.644 166.047 103.503 167.093 101.456 168.354C100.111 169.182 98.8512 170.223 97.5252 171.082C97.1256 171.341 96.3882 170.386 96.1552 170.173C95.2084 169.307 94.1747 168.568 93.2423 167.675C91.8211 166.313 90.5437 164.652 89.5868 162.897C89.1593 162.112 89.0242 161.14 88.7545 160.29C88.4636 159.374 88.2257 158.473 88.0119 157.534C87.6353 155.88 87.1962 153.932 87.3973 152.227C87.5068 151.298 87.7838 148.911 88.7801 148.439C91.2022 147.292 93.6956 147.78 95.8415 149.355C96.5805 149.898 97.1861 150.292 97.8325 150.978C98.3269 151.502 98.4783 152.269 99.241 152.471" stroke="#12A682" stroke-linecap="round"/>
<path fill-rule="evenodd" clip-rule="evenodd" d="M150.931 391.221C150.931 397.727 156.205 403 162.711 403H307.954C314.46 403 319.734 397.726 319.734 391.22H319.734C319.734 377.167 308.342 365.775 294.289 365.775H176.376C162.323 365.775 150.931 377.168 150.931 391.221Z" fill="#C4C4C4"/>
<path d="M150.931 391.221L150.431 391.221V391.221H150.931ZM319.734 391.22V390.72H320.234V391.22H319.734ZM319.734 391.22V391.72H319.234L319.234 391.22L319.734 391.22ZM162.711 403.5C155.929 403.5 150.431 398.003 150.431 391.221L151.431 391.221C151.431 397.45 156.481 402.5 162.711 402.5V403.5ZM307.954 403.5H162.711V402.5H307.954V403.5ZM320.234 391.22C320.234 398.002 314.736 403.5 307.954 403.5V402.5C314.184 402.5 319.234 397.45 319.234 391.22H320.234ZM319.734 390.72H319.734V391.72H319.734V390.72ZM319.234 391.22C319.234 377.443 308.066 366.275 294.289 366.275V365.275C308.618 365.275 320.234 376.891 320.234 391.22L319.234 391.22ZM294.289 366.275H176.376V365.275H294.289V366.275ZM176.376 366.275C162.599 366.275 151.431 377.444 151.431 391.221H150.431C150.431 376.892 162.047 365.275 176.376 365.275V366.275Z" fill="black"/>
<rect width="468" height="246.986" transform="matrix(-1 0 0 1 469 95.5632)" fill="#C4C4C4" stroke="black"/>
<rect width="436.915" height="230.146" transform="matrix(-1 0 0 1 453.458 104.199)" fill="#C4C4C4" stroke="black"/>
<rect width="6.90775" height="47.0656" transform="matrix(-1 0 0 1 424.099 260.076)" stroke="black"/>
<rect width="7.33948" height="47.0656" transform="matrix(-1 0 0 1 417.624 260.076)" stroke="black"/>
<rect width="6.90775" height="47.0656" transform="matrix(-1 0 0 1 411.147 260.076)" stroke="black"/>
<rect width="6.90775" height="47.0656" transform="matrix(-1 0 0 1 404.671 260.076)" stroke="black"/>
<rect width="6.90775" height="47.0656" transform="matrix(-1 0 0 1 397.764 260.076)" stroke="black"/>
<rect width="6.90775" height="47.0656" transform="matrix(-1 0 0 1 391.719 260.076)" stroke="black"/>
<rect width="6.90775" height="47.0656" transform="matrix(-1 0 0 1 385.244 260.076)" stroke="black"/>
<rect width="6.90775" height="47.0656" transform="matrix(-1 0 0 1 378.336 260.076)" stroke="black"/>
<rect width="6.90775" height="47.0656" transform="matrix(-1 0 0 1 372.292 260.076)" stroke="black"/>
<rect width="6.90775" height="47.0656" transform="matrix(-1 0 0 1 365.384 260.076)" stroke="black"/>
<rect width="6.47602" height="47.0656" transform="matrix(-1 0 0 1 358.908 260.076)" stroke="black"/>
<rect width="6.90775" height="47.0656" transform="matrix(-1 0 0 1 352.863 260.076)" stroke="black"/>
<rect width="6.90775" height="47.0656" transform="matrix(-1 0 0 1 345.956 260.076)" stroke="black"/>
<rect width="6.47602" height="47.0656" transform="matrix(-1 0 0 1 339.48 260.076)" stroke="black"/>
<rect width="7.33948" height="47.0656" transform="matrix(-1 0 0 1 333.435 260.076)" stroke="black"/>
<rect width="6.90775" height="47.0656" transform="matrix(-1 0 0 1 326.528 260.076)" stroke="black"/>
<rect width="6.90775" height="47.0656" transform="matrix(-1 0 0 1 150.38 260.076)" stroke="black"/>
<rect width="7.33948" height="47.0656" transform="matrix(-1 0 0 1 143.904 260.076)" stroke="black"/>
<rect width="6.90775" height="47.0656" transform="matrix(-1 0 0 1 137.428 260.076)" stroke="black"/>
<rect width="6.90775" height="47.0656" transform="matrix(-1 0 0 1 130.952 260.076)" stroke="black"/>
<rect width="6.47602" height="47.0656" transform="matrix(-1 0 0 1 124.044 260.076)" stroke="black"/>
<rect width="6.90775" height="47.0656" transform="matrix(-1 0 0 1 118 260.076)" stroke="black"/>
<rect width="6.90775" height="47.0656" transform="matrix(-1 0 0 1 111.524 260.076)" stroke="black"/>
<rect width="6.47602" height="47.0656" transform="matrix(-1 0 0 1 104.616 260.076)" stroke="black"/>
<rect width="6.90775" height="47.0656" transform="matrix(-1 0 0 1 98.5718 260.076)" stroke="black"/>
<rect width="6.90775" height="47.0656" transform="matrix(-1 0 0 1 91.6643 260.076)" stroke="black"/>
<rect width="6.47602" height="47.0656" transform="matrix(-1 0 0 1 85.1882 260.076)" stroke="black"/>
<rect width="6.90775" height="47.0656" transform="matrix(-1 0 0 1 79.1438 260.076)" stroke="black"/>
<rect width="6.90775" height="47.0656" transform="matrix(-1 0 0 1 72.2361 260.076)" stroke="black"/>
<rect width="6.90775" height="47.0656" transform="matrix(-1 0 0 1 66.1921 260.076)" stroke="black"/>
<rect width="7.33948" height="47.0656" transform="matrix(-1 0 0 1 59.7158 260.076)" stroke="black"/>
<rect width="6.90775" height="47.0656" transform="matrix(-1 0 0 1 52.8076 260.076)" stroke="black"/>
<path d="M258.745 162.919C258.745 149.805 248.114 139.174 235 139.174C221.886 139.174 211.255 149.805 211.255 162.919V380.547H258.745V162.919Z" fill="#C4C4C4" stroke="black"/>
<path d="M258.745 195.736C258.745 182.622 248.114 171.991 235 171.991C221.886 171.991 211.255 182.622 211.255 195.736V383.57H258.745V195.736Z" fill="#C4C4C4" stroke="black"/>
<path d="M439.261 396.181C439.261 379.388 425.648 365.775 408.855 365.775C392.063 365.775 378.449 379.388 378.449 396.181V398.282H439.261V396.181Z" fill="#C4C4C4" stroke="black"/>
<path d="M439.261 397.233C439.261 400.418 436.679 403 433.493 403H384.217C381.032 403 378.449 400.418 378.449 397.233H439.261Z" fill="#C4C4C4" stroke="black"/>
<path d="M408.855 366.561V378.62" stroke="black"/>
<path d="M211.92 68.2296V68.2296C219.495 60.6537 231.776 60.6537 239.351 68.2296V68.2296" stroke="black"/>
<rect width="44.4686" height="44.4748" rx="22.2343" transform="matrix(-1 0 0 1 275.583 45.9062)" fill="#12A682" stroke="black"/>
<rect width="44.4686" height="44.4748" rx="22.2343" transform="matrix(-1 0 0 1 221.185 45.9062)" fill="#12A682" stroke="black"/>
<path d="M176.716 67.4961C176.716 67.4961 145.892 67.4961 145.631 80.4499" stroke="black"/>
<path d="M254.462 55.4497C251.214 57.8858 249.195 60.9796 245.552 63.0038C244.068 63.8285 239.532 65.9465 241.205 65.6595C245.446 64.9324 249.619 63.9987 253.793 62.9645C254.782 62.7194 256.312 61.8235 257.295 61.8235C258.211 61.8235 257.063 62.771 256.901 62.9251C254.737 64.988 252.181 66.5355 249.663 68.1186C246.681 69.9933 242.679 72.065 241.284 75.5546C241.279 75.5662 240.957 76.1084 241.185 76.0267C243.819 75.0862 246.473 73.1519 248.994 71.9546C253.113 69.9985 257.513 68.4186 261.425 66.053C262.883 65.1713 267.387 62.9002 266.126 64.0464C264.659 65.3803 262.319 66.0795 260.638 67.0759C257.898 68.701 255.72 70.6819 253.734 73.1546C252.95 74.1314 252.006 75.0516 251.276 76.0661C251.229 76.1304 250.211 77.1965 250.45 77.3251C251.866 78.0877 256.898 74.7022 258.121 74.2563C259.603 73.7156 261.052 73.5087 262.605 73.5087" stroke="black" stroke-linecap="round"/>
<path d="M262.605 73.5054C260.828 76.4047 258.986 80.6656 256.586 83.066" stroke="black" stroke-linecap="round"/>
<path d="M199.858 54.8599C196.61 57.296 194.591 60.3897 190.948 62.414C189.463 63.2387 184.927 65.3566 186.601 65.0697C190.842 64.3426 195.014 63.4089 199.189 62.3746C200.178 62.1296 201.708 61.2336 202.69 61.2336C203.606 61.2336 202.459 62.1812 202.297 62.3353C200.132 64.3982 197.576 65.9456 195.059 67.5287C192.077 69.4034 188.075 71.4752 186.679 74.9648C186.675 74.9763 186.352 75.5186 186.581 75.4369C189.214 74.4963 191.869 72.562 194.39 71.3648C198.509 69.4086 202.909 67.8288 206.821 65.4631C208.279 64.5815 212.783 62.3104 211.522 63.4566C210.055 64.7905 207.714 65.4897 206.034 66.4861C203.294 68.1112 201.116 70.0921 199.13 72.5648C198.346 73.5416 197.402 74.4617 196.672 75.4762C196.625 75.5406 195.607 76.6066 195.845 76.7353C197.261 77.4978 202.294 74.1124 203.516 73.6664C204.998 73.1258 206.448 72.9189 208.001 72.9189" stroke="black" stroke-linecap="round"/>
<path d="M208.001 72.9155C206.224 75.8148 204.382 80.0757 201.982 82.4762" stroke="black" stroke-linecap="round"/>
<rect width="12.0575" height="21.4965" rx="6.02874" transform="matrix(-0.980675 -0.195643 -0.195591 0.980686 429.825 360.27)" fill="#12A682" stroke="black"/>
<rect width="12.0575" height="21.4965" rx="6.02874" transform="matrix(-0.980675 -0.195643 -0.195591 0.980686 439.785 366.561)" fill="#12A682" stroke="black"/>
<rect width="12.0575" height="21.4965" rx="6.02874" transform="matrix(-0.980675 -0.195643 -0.195591 0.980686 418.2 360.27)" fill="#12A682" stroke="black"/>
<rect width="12.0587" height="14.3597" rx="6.02935" transform="matrix(-0.474847 0.880069 0.880014 0.474948 383.636 370.211)" fill="#12A682" stroke="black"/>
</svg>

<svg width="470" height="404" fill="none" xmlns="http://www.w3.org/2000/svg"><path d="M365.384 390.046c-1.189-11.965-7.735-59.513-9.612-74.38-12.216-62.962-40.288-127.206-117.855-119.089-74.776-20.891-146.685 11.136-146.685 193.469" stroke="#000"/><path d="M435.756 390.046c-.878-11.965-5.713-59.513-7.098-74.38-9.023-62.962-29.757-127.206-87.046-119.089-55.229-20.891-108.339 11.136-108.339 193.469" stroke="#000"/><path d="M383.517 390.046c-.708-11.965-4.605-59.513-5.722-74.38-7.272-62.962-23.983-127.206-70.156-119.089-44.513-20.891-87.318 11.136-87.318 193.469" stroke="#000"/><path d="M157.719 81.513c-.571-.284-23.238-8.091-23.737 15.01-.499 23.102 23.231 18.833 23.289 18.165.058-.667.448-33.175.448-33.175z" fill="#12A682" stroke="#000"/><path d="M203.95 1l3.304.171c16.047.842 31.185 7.625 42.398 18.998 11.213 11.373 17.679 26.502 18.11 42.374.851 30.593 1.392 64.401.31 80.734-2.236 33.822-36.785 37.285-36.785 37.285s.245 9.051.151 18.999l-.923.485a79.528 79.528 0 01-40.016 9.018 79.416 79.416 0 01-39.173-12.104l-1.76-130.334C148.39 31.286 168.204 1.186 203.95 1z" fill="#12A682" stroke="#000"/><path d="M258.313 68.792a4.967 4.967 0 01-5.049 4.748 4.761 4.761 0 01-4.503-2.897 4.752 4.752 0 01-.377-1.844 4.967 4.967 0 015.049-4.755 4.755 4.755 0 014.88 4.748z" fill="#000"/><path d="M243.203 138.311c-.159 1.763-1.716 3.426-4.34 4.636-2.624 1.209-6.108 1.869-9.71 1.838a25.909 25.909 0 01-5.161-.442c-1.644-.315-3.142-.787-4.407-1.389-1.266-.602-2.272-1.323-2.962-2.118-.689-.796-1.046-1.651-1.051-2.515" stroke="#000" stroke-linecap="round"/><path d="M210.823 68.792a4.968 4.968 0 01-5.049 4.748 4.755 4.755 0 01-4.881-4.74 4.974 4.974 0 015.049-4.756 4.752 4.752 0 014.881 4.748z" fill="#000"/><path d="M224.728 117.128c.008.3 3.421.45 9.009.45.803.028 1.607-.04 2.393-.2a3.554 3.554 0 001.424-.648c.416-.317.75-.722.976-1.182.825-1.958.015-3.724-.428-5.26-1.08-3.317-2.212-6.776-3.398-10.407-4.935-14.73-9.443-26.524-10.066-26.338" stroke="#000" stroke-linecap="round"/><path d="M209.018 51.181c-.068 1.5-7.444.828-13.13 3.36-5.725 2.426-7.802 7.202-8.968 6.23-.539-.472-.111-1.998 1.404-3.907a20.991 20.991 0 017.564-5.571 21.231 21.231 0 019.27-1.739c2.443.192 3.87.916 3.86 1.627zm57.448 7.476c-1.261.814-3.684-3.632-7.803-5.096-4.04-1.596-8.516.28-8.924-1.173-.16-.683.776-1.619 2.665-2.166a13.069 13.069 0 017.498.5 13.04 13.04 0 015.98 4.542c1.071 1.656 1.158 2.972.584 3.393z" fill="#12A682" stroke="#000"/><path d="M331.945 52.111l-7.687 8.908 18.258-8.908c6.887 0 21.141-4.117 21.141-20.61 0-18.212-20.981-19.011-31.712-18.212-9.93-.48-27.868 0-27.867 18.213 0 15.795 8.649 20.61 27.867 20.61z" fill="#FF6B0A" stroke="#FF6B0A"/><path d="M344.055 31.055c1.124-7.998-3.328-8.249-9.984-5.155-2.936-2.247-11.358-4.684-9.984 5.155 1.09 7.799 9.984 10.966 9.984 10.966s8.777-2.376 9.984-10.966z" fill="#fff"/><path d="M183.067 374.502c.161-17.47 1.156-50.198 3.855-102.897 2.64-51.558-28.943-60.989-46.104-59.271-.749.075-1.493.076-2.246.093-5.656.127-16.978 4.57-24.889 22.154" stroke="#000" stroke-linecap="round"/><path d="M100.926 177.683l7.687 8.988-18.258-8.988c-6.887 0-21.141-4.154-21.141-20.795 0-18.377 20.98-19.183 31.712-18.377 9.929-.484 27.868 0 27.867 18.377 0 15.938-8.649 20.795-27.867 20.795z" fill="#000" stroke="#000"/><path d="M99.932 152.227c.786-.435 1.544-1.233 2.42-1.439 1.003-.237 1.849-1.116 2.868-1.236.857-.101 1.838-.187 2.696-.129.652.045 1.379.498 1.991.727 1.254.468 2.303 2.259 2.644 3.543.573 2.161.184 3.886-.749 5.864-.54 1.144-1.088 2.344-1.844 3.346-.643.853-1.454 1.249-2.305 1.813-2.009 1.331-4.15 2.377-6.197 3.638-1.345.828-2.605 1.869-3.93 2.728-.4.259-1.138-.696-1.37-.909-.948-.866-1.981-1.605-2.914-2.498a19.97 19.97 0 01-3.655-4.778c-.428-.785-.563-1.757-.833-2.607a33.78 33.78 0 01-.742-2.756c-.377-1.654-.816-3.602-.615-5.307.11-.929.387-3.316 1.383-3.788 2.422-1.147 4.916-.659 7.061.916.74.543 1.345.937 1.992 1.623.494.524.645 1.291 1.408 1.493" stroke="#12A682" stroke-linecap="round"/><path fill-rule="evenodd" clip-rule="evenodd" d="M150.931 391.221c0 6.506 5.274 11.779 11.78 11.779h145.243c6.506 0 11.78-5.274 11.78-11.78 0-14.053-11.392-25.445-25.445-25.445H176.376c-14.053 0-25.445 11.393-25.445 25.446z" fill="#C4C4C4"/><path d="M150.931 391.221h-.5.5zm168.803-.001v-.5h.5v.5h-.5zm0 0v.5h-.5v-.5h.5zM162.711 403.5c-6.782 0-12.28-5.497-12.28-12.279h1c0 6.229 5.05 11.279 11.28 11.279v1zm145.243 0H162.711v-1h145.243v1zm12.28-12.28c0 6.782-5.498 12.28-12.28 12.28v-1c6.23 0 11.28-5.05 11.28-11.28h1zm-.5-.5v1-1zm-.5.5c0-13.777-11.168-24.945-24.945-24.945v-1c14.329 0 25.945 11.616 25.945 25.945h-1zm-24.945-24.945H176.376v-1h117.913v1zm-117.913 0c-13.777 0-24.945 11.169-24.945 24.946h-1c0-14.329 11.616-25.946 25.945-25.946v1z" fill="#000"/><path fill="#C4C4C4" stroke="#000" d="M469 95.563H1V342.55h468z"/><path fill="#C4C4C4" stroke="#000" d="M453.458 104.199H16.543v230.146h436.915z"/><path stroke="#000" d="M424.099 260.076h-6.908v47.066h6.908z"/><path stroke="#000" d="M417.624 260.076h-7.339v47.066h7.339z"/><path stroke="#000" d="M411.147 260.076h-6.908v47.066h6.908z"/><path stroke="#000" d="M404.671 260.076h-6.908v47.066h6.908z"/><path stroke="#000" d="M397.764 260.076h-6.908v47.066h6.908z"/><path stroke="#000" d="M391.719 260.076h-6.908v47.066h6.908z"/><path stroke="#000" d="M385.244 260.076h-6.908v47.066h6.908zm-6.908 0h-6.908v47.066h6.908z"/><path stroke="#000" d="M372.292 260.076h-6.908v47.066h6.908z"/><path stroke="#000" d="M365.384 260.076h-6.908v47.066h6.908z"/><path stroke="#000" d="M358.908 260.076h-6.476v47.066h6.476z"/><path stroke="#000" d="M352.863 260.076h-6.908v47.066h6.908z"/><path stroke="#000" d="M345.956 260.076h-6.908v47.066h6.908z"/><path stroke="#000" d="M339.48 260.076h-6.476v47.066h6.476z"/><path stroke="#000" d="M333.435 260.076h-7.339v47.066h7.339z"/><path stroke="#000" d="M326.528 260.076h-6.908v47.066h6.908zm-176.148 0h-6.908v47.066h6.908z"/><path stroke="#000" d="M143.904 260.076h-7.339v47.066h7.339z"/><path stroke="#000" d="M137.428 260.076h-6.908v47.066h6.908z"/><path stroke="#000" d="M130.952 260.076h-6.908v47.066h6.908zm-6.908 0h-6.476v47.066h6.476z"/><path stroke="#000" d="M118 260.076h-6.908v47.066H118z"/><path stroke="#000" d="M111.524 260.076h-6.908v47.066h6.908zm-6.908 0H98.14v47.066h6.476z"/><path stroke="#000" d="M98.572 260.076h-6.908v47.066h6.908zm-6.908 0h-6.908v47.066h6.908z"/><path stroke="#000" d="M85.188 260.076h-6.476v47.066h6.476z"/><path stroke="#000" d="M79.144 260.076h-6.908v47.066h6.908zm-6.908 0h-6.908v47.066h6.908z"/><path stroke="#000" d="M66.192 260.076h-6.908v47.066h6.908z"/><path stroke="#000" d="M59.716 260.076h-7.34v47.066h7.34z"/><path stroke="#000" d="M52.808 260.076H45.9v47.066h6.908z"/><path d="M258.745 162.919c0-13.114-10.631-23.745-23.745-23.745s-23.745 10.631-23.745 23.745v217.628h47.49V162.919z" fill="#C4C4C4" stroke="#000"/><path d="M258.745 195.736c0-13.114-10.631-23.745-23.745-23.745s-23.745 10.631-23.745 23.745V383.57h47.49V195.736zm180.516 200.445c0-16.793-13.613-30.406-30.406-30.406-16.792 0-30.406 13.613-30.406 30.406v2.101h60.812v-2.101z" fill="#C4C4C4" stroke="#000"/><path d="M439.261 397.233a5.767 5.767 0 01-5.768 5.767h-49.276a5.768 5.768 0 01-5.768-5.767h60.812z" fill="#C4C4C4" stroke="#000"/><path d="M408.855 366.561v12.059M211.92 68.23v0c7.575-7.576 19.856-7.576 27.431 0v0" stroke="#000"/><rect width="44.469" height="44.475" rx="22.234" transform="matrix(-1 0 0 1 275.583 45.906)" fill="#12A682" stroke="#000"/><rect width="44.469" height="44.475" rx="22.234" transform="matrix(-1 0 0 1 221.185 45.906)" fill="#12A682" stroke="#000"/><path d="M176.716 67.496s-30.824 0-31.085 12.954" stroke="#000"/><path d="M254.462 55.45c-3.248 2.436-5.267 5.53-8.91 7.554-1.484.825-6.02 2.943-4.347 2.655 4.241-.727 8.414-1.66 12.588-2.695.989-.245 2.519-1.14 3.502-1.14.916 0-.232.947-.394 1.101-2.164 2.063-4.72 3.61-7.238 5.194-2.982 1.874-6.984 3.946-8.379 7.436-.005.011-.327.553-.099.472 2.634-.94 5.288-2.875 7.809-4.072 4.119-1.956 8.519-3.536 12.431-5.902 1.458-.882 5.962-3.153 4.701-2.007-1.467 1.334-3.807 2.033-5.488 3.03-2.74 1.625-4.918 3.606-6.904 6.079-.784.976-1.728 1.897-2.458 2.911-.047.064-1.065 1.13-.826 1.26 1.416.762 6.448-2.624 7.671-3.07 1.482-.54 2.931-.747 4.484-.747m0-.004c-1.777 2.9-3.619 7.16-6.019 9.561M199.858 54.86c-3.248 2.436-5.267 5.53-8.91 7.554-1.485.825-6.021 2.943-4.347 2.656 4.241-.727 8.413-1.661 12.588-2.695.989-.245 2.519-1.141 3.501-1.141.916 0-.231.947-.393 1.101-2.165 2.063-4.721 3.61-7.238 5.194-2.982 1.874-6.984 3.946-8.38 7.436-.004.011-.327.554-.098.472 2.633-.94 5.288-2.875 7.809-4.072 4.119-1.956 8.519-3.536 12.431-5.902 1.458-.881 5.962-3.153 4.701-2.006-1.467 1.333-3.808 2.033-5.488 3.03-2.74 1.624-4.918 3.605-6.904 6.078-.784.977-1.728 1.897-2.458 2.911-.047.065-1.065 1.13-.827 1.26 1.416.762 6.449-2.624 7.671-3.07 1.482-.54 2.932-.747 4.485-.747m0-.004c-1.777 2.9-3.619 7.16-6.019 9.561" stroke="#000" stroke-linecap="round"/><rect width="12.057" height="21.497" rx="6.029" transform="matrix(-.98067 -.19564 -.1956 .98069 429.825 360.27)" fill="#12A682" stroke="#000"/><rect width="12.057" height="21.497" rx="6.029" transform="matrix(-.98067 -.19564 -.1956 .98069 439.785 366.561)" fill="#12A682" stroke="#000"/><rect width="12.057" height="21.497" rx="6.029" transform="matrix(-.98067 -.19564 -.1956 .98069 418.2 360.27)" fill="#12A682" stroke="#000"/><rect width="12.059" height="14.36" rx="6.029" transform="matrix(-.47485 .88007 .88001 .47495 383.636 370.211)" fill="#12A682" stroke="#000"/></svg>
